src/assets/imgs/birdlife-international.svg

<svg width="90" height="66" viewBox="0 0 90 66" fill="none" xmlns="http://www.w3.org/2000/svg">
<path fill-rule="evenodd" clip-rule="evenodd" d="M32.0933 2.61567C31.1466 1.62404 29.4267 0.508451 27.7384 0.121094C28.3064 3.00303 28.1329 5.34266 27.7542 6.78363C26.9337 10.0839 25.8135 12.0362 24.4092 14.0659C23.2574 15.7393 20.5435 18.4973 18.587 19.6129C21.2851 20.3101 23.7149 20.5271 25.9555 20.5735C27.4229 20.6045 30.0736 20.4186 31.4148 20.0312C32.6613 19.6749 34.3811 19.3805 35.5645 19.5354C37.0792 19.9383 38.7675 20.3411 40.2665 20.682C40.0929 20.5735 37.5368 18.8847 36.8268 18.4043L36.8259 18.403C35.8956 17.0715 35.5169 16.5294 34.5547 15.9717C33.3924 15.2959 32.0522 15.5226 30.9651 15.7065L30.8626 15.7238C30.973 12.2066 33.0557 9.63458 34.0971 8.70492C34.3811 8.45701 34.4916 8.03867 34.46 7.52736C34.3811 6.16386 33.4029 4.01016 32.0933 2.61567ZM7.03717 1.57756C11.3447 1.28317 16.6304 3.42138 18.6816 4.87784C20.9853 6.52024 23.3994 9.94447 24.5039 12.7489C23.0207 15.1815 20.9064 17.2578 19.1708 18.5438C17.6087 19.7059 9.30926 24.0443 9.11992 23.8583C8.93058 23.6879 9.73528 23.0216 10.3191 22.5568C10.4216 22.474 10.5455 22.3799 10.6814 22.2768L10.6814 22.2767C11.4861 21.6658 12.7078 20.7381 12.3703 19.9693C12.1336 19.4115 10.2875 19.1016 8.37833 19.0706C6.91094 19.0396 4.46529 18.7917 4.44951 18.4353C4.44107 18.2363 5.39515 18.2503 6.9466 18.2731H6.94661H6.94663H6.94665H6.94666H6.94668C8.29424 18.2929 10.0925 18.3192 12.102 18.2184C14.5319 18.0945 18.1452 16.7465 18.082 14.7012C18.0189 12.656 17.3089 10.6727 15.4313 8.42603C12.8594 5.35816 9.34082 2.97205 7.03717 1.57756ZM76.8881 30.3504C64.9754 26.2909 52.8892 23.44 33.3871 24.726C25.4821 25.2528 15.7153 27.7164 14.2321 28.2742V28.3207C15.7311 27.9023 21.6006 26.7867 24.8668 26.6628C16.378 28.1657 7.28962 30.7843 4.27594 31.8379C4.35483 31.8146 4.36667 31.8146 4.3785 31.8146C4.39034 31.8146 4.40217 31.8146 4.48106 31.7914C10.0193 30.025 28.8745 25.8416 38.6729 26.4459C17.7846 28.4021 10.7637 30.6566 4.43971 32.6874C3.85142 32.8763 3.26916 33.0632 2.68232 33.2479L2.72966 33.4028C15.5102 29.9011 34.4758 26.8642 47.6665 27.6079C60.4611 28.3185 70.7028 30.7304 75.6867 31.9042L75.6868 31.9042C77.2239 32.2662 78.2609 32.5104 78.7184 32.5506L78.4724 32.4596C77.5976 32.136 76.7549 31.8242 76.0045 31.5125L76.0748 31.5123L76.1123 31.5121L76.2107 31.5113C76.5047 31.5088 76.8372 31.506 77.2826 31.5435L77.1879 31.5085C76.8429 31.3811 76.5067 31.2568 76.1308 31.1716C76.1992 31.1791 76.3151 31.1686 76.4575 31.1557C76.6107 31.1418 76.7946 31.1251 76.9828 31.1251C76.6718 31.0189 76.1001 30.8529 75.5283 30.687L75.5282 30.6869L75.528 30.6869C74.7654 30.4655 74.0029 30.2442 73.8587 30.1645L73.9007 30.1713L73.901 30.1713L73.9012 30.1713C74.7608 30.3095 75.7965 30.4759 76.5726 30.5673C76.3201 30.4744 75.9572 30.3194 75.7205 30.211C75.9135 30.2391 76.0709 30.2544 76.2308 30.27C76.4239 30.2889 76.6206 30.3081 76.8881 30.3504ZM8.42566 43.3036H4.71774V37.7722H8.36255C10.0824 37.7722 11.1395 38.8258 11.1395 40.4992C11.1395 42.1726 10.0508 43.3036 8.42566 43.3036ZM4.73352 52.0269L4.71774 45.7052H8.70968C10.6189 45.7052 11.8969 46.9758 11.8969 48.8816C11.8969 50.8184 10.6662 52.0269 8.70968 52.0269H4.73352ZM0 54.5215H8.55189C12.4018 54.5215 14.8948 52.3523 14.8948 49.0055C14.8948 46.7743 13.6799 44.9615 11.7865 44.3417C13.2539 43.567 14.1217 42.0486 14.1217 40.2203C14.1217 37.2144 11.8654 35.2776 8.39411 35.2776H0V37.7722L1.37272 37.7877C1.65673 37.8032 1.79874 37.9581 1.79874 38.268V51.5931C1.79874 51.9339 1.64095 52.0889 1.29383 52.0889H0V54.5215ZM36.1641 47.5955C36.1641 44.7601 37.7735 42.7923 40.0614 42.7923C42.7279 42.7923 43.9428 45.2714 43.9428 47.5801C43.9428 51.1282 41.9074 52.3988 40.014 52.3988C37.7104 52.3988 36.1641 50.462 36.1641 47.5955ZM33.2766 47.611C33.2766 52.0114 35.7065 54.8469 39.4933 54.8469C42.2861 54.8469 43.6115 53.1735 44.006 52.5537C43.9902 52.6777 43.9902 52.8171 43.9902 52.9876C43.9902 54.0102 44.6055 54.537 45.7889 54.537H48.4397V52.1199H47.2248C46.8619 52.1199 46.7041 51.9494 46.7041 51.6086V37.1059C46.7041 35.8509 46.136 35.2931 44.858 35.2931H42.1283V37.7102H43.3433C43.7062 37.7102 43.864 37.8806 43.864 38.2215V41.6457C43.864 41.9092 43.8797 42.1261 43.8955 42.2965C43.7535 42.0951 43.4853 41.7697 43.075 41.4443C42.4439 40.964 41.3552 40.3752 39.6669 40.3752C35.8485 40.3752 33.2766 43.2726 33.2766 47.611ZM25.4821 54.5215H28.3222V48.8351C28.3222 47.8899 28.4327 47.0997 28.6536 46.4025C29.2532 44.4967 30.7521 43.2571 32.472 43.2571C32.6771 43.2571 32.9769 43.2881 32.9769 43.2881L33.0715 43.3036L33.0873 40.5456H33.0084C32.9926 40.5302 32.7086 40.5147 32.5508 40.5147C30.6574 40.5147 29.0323 41.7232 28.2276 43.7065C28.2433 43.567 28.2433 43.4121 28.2433 43.2262V42.3585C28.2433 41.2119 27.6438 40.6851 26.3657 40.6851H23.7465V43.1022H24.9614C25.3243 43.1022 25.4821 43.2726 25.4821 43.6135V54.5215ZM60.1946 54.5215H53.331C52.0845 54.5215 51.5322 53.9792 51.5322 52.7551V38.2215C51.5322 37.8806 51.3745 37.7257 51.0273 37.7257H49.7808V35.2931H52.5736C53.8201 35.2931 54.3723 35.8354 54.3723 37.0594V51.5931C54.3723 51.9184 54.5459 52.0889 54.8773 52.0889H58.8692C59.2005 52.0889 59.3741 51.9184 59.3741 51.5931V50.3225H61.9933V52.7551C61.9933 53.9637 61.4411 54.5215 60.1946 54.5215ZM74.0323 54.5215H71.2553V43.2726H69.567V41.0415H71.2553V40.3132C71.2553 35.7734 74.9001 35.2776 76.4621 35.2776C76.9635 35.2776 77.3369 35.3347 77.4423 35.3509C77.4596 35.3535 77.4697 35.3551 77.4719 35.3551L77.5508 35.3706V37.7257L77.4404 37.7102C77.4404 37.7102 77.1722 37.6637 76.7935 37.6637C75.547 37.6637 74.048 38.1285 74.048 40.3597V41.026H76.825V43.2571H74.048V54.5215H74.0323ZM87.1283 45.9067H80.1543C80.5487 43.8769 82.0319 42.6064 84.0358 42.6064C85.8187 42.6064 87.0179 43.8924 87.1283 45.9067ZM77.1721 47.5955C77.1721 51.7945 80.2332 54.8314 84.4618 54.8314C87.6806 54.8314 89.7318 52.8326 89.7475 52.8016L89.7949 52.7551L88.5799 50.7409L88.5011 50.8184C88.4853 50.8338 86.8759 52.3833 84.6038 52.3833C82.4737 52.3833 80.2489 51.0198 80.0438 47.9984H89.9053L89.9211 47.9209C89.9211 47.9139 89.9252 47.8723 89.9315 47.808C89.9529 47.59 90 47.1115 90 46.8363C90 42.9627 87.6175 40.3597 84.0673 40.3597C80.0123 40.3597 77.1721 43.3346 77.1721 47.5955ZM2.76122 59.6191H1.87763V65.7858H2.76122V59.6191ZM7.95231 59.6191H7.0845V65.7858H7.96808V61.7883C7.96808 61.4474 7.90497 60.8896 7.90497 60.8896H7.92075C7.92075 60.8896 8.20476 61.4474 8.44144 61.7883L11.2342 65.7858H12.102V59.6191H11.2184V63.6321C11.2184 63.973 11.2815 64.5153 11.2815 64.5153H11.2658C11.2658 64.5153 10.9818 63.9575 10.7451 63.6321L7.95231 59.6191ZM16.4253 60.3628H14.2794V59.6191H19.4548V60.3628H17.3089V65.7703H16.4253V60.3628ZM25.4821 59.6191H21.8373V65.7703H25.6399V65.0266H22.7209V63.0433H24.9614V62.2996H22.7209V60.3628H25.4821V59.6191ZM30.7679 62.5785C31.4463 62.5785 31.8724 62.1447 31.8724 61.4629C31.8724 61.0136 31.6988 60.6882 31.3675 60.5178C31.1939 60.4248 30.9888 60.3783 30.4996 60.3783H29.5056V62.5785H30.7679ZM28.6378 59.6191H30.5628C31.2254 59.6191 31.4937 59.6656 31.7304 59.7585C32.3773 59.991 32.7875 60.6107 32.7875 61.4319C32.7875 62.2221 32.3457 62.8729 31.6515 63.1053V63.1208C31.6515 63.1208 31.7146 63.1983 31.8408 63.3997L33.1662 65.7858H32.1721L30.8468 63.3377H29.5056V65.7858H28.622V59.6191H28.6378ZM37.2528 59.6191H36.4008V65.7858H37.2844V61.7883C37.2844 61.4474 37.2212 60.8896 37.2212 60.8896H37.237C37.237 60.8896 37.521 61.4474 37.7577 61.7883L40.5505 65.7858H41.4025V59.6191H40.5189V63.6321C40.5189 63.973 40.5821 64.5153 40.5821 64.5153H40.5663C40.5663 64.5153 40.2823 63.9575 40.0456 63.6321L37.2528 59.6191ZM46.5305 60.4558C46.5305 60.4558 46.3885 61.0136 46.278 61.3235L45.5838 63.2757H47.493L46.7987 61.3235C46.6883 61.0136 46.5621 60.4558 46.5621 60.4558H46.5305ZM47.6981 64.004H45.3313L44.716 65.7703H43.8166L46.0729 59.6191H47.0039L49.2602 65.7858H48.345L47.6981 64.004ZM50.4751 60.3628H52.621V65.7703H53.5046V60.3628H55.6504V59.6191H50.4751V60.3628ZM58.9165 59.6191H58.033V65.7858H58.9165V59.6191ZM66.9951 62.656C66.9951 64.035 66.1746 65.0886 64.8965 65.0886C63.6185 65.0886 62.798 64.035 62.798 62.656C62.798 61.308 63.6185 60.3008 64.8965 60.3008C66.1746 60.3008 66.9951 61.308 66.9951 62.656ZM67.8944 62.656C67.8944 60.8741 66.7111 59.5106 64.8965 59.5106C63.082 59.5106 61.8987 60.8741 61.8829 62.656C61.8829 64.4688 63.082 65.8788 64.8965 65.8788C66.7111 65.8788 67.8944 64.4688 67.8944 62.656ZM70.6714 59.6191H71.5392L74.332 63.6321C74.5687 63.9575 74.8527 64.5153 74.8527 64.5153H74.8685C74.8685 64.5153 74.8054 63.973 74.8054 63.6321V59.6191H75.689V65.7858H74.8211L72.0284 61.7883C71.7917 61.4474 71.5077 60.8896 71.5077 60.8896H71.4761C71.4761 60.8896 71.5392 61.4474 71.5392 61.7883V65.7858H70.6556V59.6191H70.6714ZM80.7065 61.3235C80.817 61.0136 80.959 60.4558 80.959 60.4558H80.9905C80.9905 60.4558 81.1168 61.0136 81.2272 61.3235L81.9214 63.2757H80.0123L80.7065 61.3235ZM79.7756 64.004H82.1423L82.7893 65.7703H83.7044L81.4481 59.6036H80.5172L78.2609 65.7703H79.1602L79.7756 64.004ZM86.1816 59.6191H87.0652V65.0266H89.8738V65.7703H86.1816V59.6191ZM22.8471 54.5215H20.1648C18.8867 54.5215 18.3187 53.9637 18.3187 52.7086V43.6135C18.3187 43.2726 18.1609 43.1022 17.798 43.1022H16.5673V40.6851H19.2654C20.5435 40.6851 21.1115 41.2429 21.1115 42.4979V51.5931C21.1115 51.9339 21.2693 52.1044 21.6322 52.1044H22.8471V54.5215ZM17.9716 36.8735C17.9716 37.8187 18.7605 38.5934 19.723 38.5934C20.6855 38.5934 21.4586 37.8187 21.4744 36.8735C21.4744 35.9284 20.6855 35.1536 19.723 35.1536C18.7605 35.1536 17.9716 35.9284 17.9716 36.8735ZM68.6991 54.5215H66.001C64.723 54.5215 64.155 53.9637 64.155 52.7086V43.6135C64.155 43.2726 63.9972 43.1022 63.6343 43.1022H62.4193V40.6851H65.1174C66.3955 40.6851 66.9635 41.2429 66.9635 42.4979V51.5931C66.9635 51.9339 67.1213 52.1044 67.4842 52.1044H68.6991V54.5215ZM63.8078 36.8735C63.8078 37.8187 64.5968 38.5934 65.5593 38.5934C66.5217 38.5934 67.3107 37.8187 67.3107 36.8735C67.3107 35.9284 66.5217 35.1536 65.5593 35.1536C64.5968 35.1536 63.8078 35.9284 63.8078 36.8735Z" fill="white"/>
</svg>

<svg width="90" height="66" fill="none" xmlns="http://www.w3.org/2000/svg"><path fill-rule="evenodd" clip-rule="evenodd" d="M32.093 2.616C31.147 1.624 29.427.508 27.738.12c.568 2.882.395 5.222.016 6.663-.82 3.3-1.94 5.252-3.345 7.282-1.152 1.673-3.865 4.431-5.822 5.547 2.698.697 5.128.914 7.369.96 1.467.032 4.118-.154 5.459-.542 1.246-.356 2.966-.65 4.15-.496 1.514.403 3.203.806 4.702 1.147-.174-.108-2.73-1.797-3.44-2.278l-.001-.001c-.93-1.331-1.31-1.874-2.271-2.431-1.163-.676-2.503-.45-3.59-.265l-.102.017c.11-3.517 2.193-6.09 3.234-7.02.284-.247.395-.665.363-1.177-.079-1.363-1.057-3.517-2.367-4.911zM7.037 1.578c4.308-.295 9.593 1.843 11.645 3.3 2.303 1.642 4.717 5.066 5.822 7.87-1.483 2.434-3.598 4.51-5.333 5.796-1.562 1.162-9.862 5.5-10.051 5.314-.19-.17.615-.836 1.2-1.301.102-.083.226-.177.361-.28.805-.611 2.027-1.539 1.69-2.308-.237-.558-2.084-.867-3.993-.898-1.467-.031-3.913-.28-3.928-.636-.009-.199.945-.185 2.497-.162 1.347.02 3.145.046 5.155-.055 2.43-.123 6.043-1.471 5.98-3.517-.063-2.045-.773-4.028-2.65-6.275-2.573-3.068-6.091-5.454-8.395-6.848zM76.888 30.35c-11.913-4.06-23.999-6.91-43.5-5.624-7.906.527-17.673 2.99-19.156 3.548v.047c1.5-.419 7.369-1.534 10.635-1.658-8.489 1.503-17.577 4.121-20.591 5.175.079-.023.09-.023.103-.023.011 0 .023 0 .102-.024 5.538-1.766 24.394-5.95 34.192-5.345-20.888 1.956-27.91 4.21-34.233 6.241-.589.19-1.17.376-1.758.56l.048.156c12.78-3.502 31.746-6.539 44.936-5.795 12.795.71 23.037 3.122 28.02 4.296 1.538.362 2.575.606 3.032.647l-.246-.091a69.533 69.533 0 0 1-2.468-.948H76.211c.294-.003.626-.006 1.072.032l-.095-.035c-.345-.128-.681-.252-1.057-.337.068.007.184-.003.326-.016.154-.014.338-.03.526-.03a41.87 41.87 0 0 0-1.455-.439c-.763-.222-1.525-.443-1.67-.523l.043.007c.86.139 1.895.305 2.672.396a13.945 13.945 0 0 1-.852-.356c.192.028.35.043.51.059.193.019.39.038.657.08zM8.426 43.304H4.718v-5.532h3.645c1.72 0 2.777 1.054 2.777 2.727 0 1.674-1.09 2.805-2.714 2.805zm-3.692 8.723l-.016-6.322H8.71c1.909 0 3.187 1.27 3.187 3.177 0 1.936-1.23 3.145-3.187 3.145H4.734zM0 54.522h8.552c3.85 0 6.343-2.17 6.343-5.517 0-2.23-1.215-4.044-3.108-4.663 1.467-.775 2.335-2.293 2.335-4.122 0-3.006-2.257-4.942-5.728-4.942H0v2.494l1.373.016c.284.015.426.17.426.48v13.325c0 .34-.158.496-.505.496H0v2.433zm36.164-6.926c0-2.836 1.61-4.804 3.897-4.804 2.667 0 3.882 2.48 3.882 4.788 0 3.548-2.036 4.819-3.929 4.819-2.304 0-3.85-1.937-3.85-4.803zm-2.887.015c0 4.4 2.43 7.236 6.216 7.236 2.793 0 4.118-1.674 4.513-2.293-.016.124-.016.263-.016.434 0 1.022.615 1.549 1.799 1.549h2.65V52.12h-1.214c-.363 0-.52-.17-.52-.511V37.106c0-1.255-.569-1.813-1.847-1.813h-2.73v2.417h1.215c.363 0 .521.17.521.511v3.425c0 .263.016.48.032.65a4.237 4.237 0 0 0-.821-.852c-.631-.48-1.72-1.069-3.408-1.069-3.819 0-6.39 2.898-6.39 7.236zm-7.795 6.91h2.84v-5.686c0-.945.11-1.735.332-2.432.6-1.906 2.098-3.146 3.818-3.146.205 0 .505.031.505.031l.095.016.015-2.758h-.079c-.015-.016-.3-.031-.457-.031-1.894 0-3.519 1.208-4.323 3.191.015-.139.015-.294.015-.48v-.867c0-1.147-.6-1.674-1.877-1.674h-2.62v2.417h1.215c.363 0 .521.17.521.512v10.908zm34.713 0H53.33c-1.247 0-1.799-.542-1.799-1.766V38.221c0-.34-.157-.495-.505-.495h-1.246v-2.433h2.793c1.246 0 1.798.542 1.798 1.766v14.534c0 .325.174.496.505.496h3.992c.331 0 .505-.17.505-.496v-1.27h2.62v2.432c0 1.209-.553 1.767-1.8 1.767zm13.837 0h-2.777V43.274h-1.688V41.04h1.688v-.728c0-4.54 3.645-5.035 5.207-5.035.501 0 .875.057.98.073l.03.004.079.016v2.355l-.11-.016s-.269-.046-.648-.046c-1.246 0-2.745.465-2.745 2.696v.666h2.777v2.231h-2.777v11.265h-.016zm13.096-8.614h-6.974c.395-2.03 1.878-3.3 3.882-3.3 1.783 0 2.982 1.285 3.092 3.3zm-9.956 1.689c0 4.199 3.061 7.235 7.29 7.235 3.219 0 5.27-1.998 5.285-2.03l.048-.046-1.215-2.014-.079.077c-.016.016-1.625 1.565-3.897 1.565-2.13 0-4.355-1.363-4.56-4.385h9.861l.016-.077.01-.113c.022-.218.069-.697.069-.972 0-3.873-2.382-6.476-5.933-6.476-4.055 0-6.895 2.975-6.895 7.236zM2.762 59.618h-.884v6.167h.883v-6.167zm5.19 0h-.867v6.167h.883v-3.998c0-.34-.063-.898-.063-.898h.016s.284.557.52.898l2.793 3.998h.868v-6.167h-.884v4.013c0 .341.063.883.063.883h-.015s-.284-.557-.52-.883L7.951 59.62zm8.473.744H14.28v-.744h5.176v.744h-2.146v5.407h-.884v-5.407zm9.057-.744h-3.645v6.151h3.803v-.743h-2.92v-1.984h2.241V62.3h-2.24v-1.937h2.761v-.744zm5.286 2.96c.678 0 1.104-.434 1.104-1.116 0-.45-.173-.775-.505-.945-.173-.093-.378-.14-.867-.14h-.994v2.2h1.262zm-2.13-2.96h1.925c.662 0 .93.047 1.167.14.647.232 1.058.852 1.058 1.673 0 .79-.442 1.44-1.136 1.673v.016s.063.077.189.279l1.325 2.386h-.994l-1.325-2.448h-1.341v2.448h-.884v-6.167h.016zm8.615 0H36.4v6.167h.883v-3.998c0-.34-.063-.898-.063-.898h.016s.284.557.52.898l2.794 3.998h.852v-6.167h-.884v4.013c0 .341.063.883.063.883h-.016s-.284-.557-.52-.883l-2.793-4.013zm9.278.837s-.142.558-.253.867l-.694 1.953h1.909l-.694-1.953c-.11-.31-.237-.867-.237-.867h-.031zm1.167 3.548h-2.367l-.615 1.766h-.9l2.257-6.15h.93l2.257 6.166h-.915l-.647-1.782zm2.777-3.641h2.146v5.407h.884v-5.407h2.145v-.744h-5.175v.744zm8.441-.744h-.883v6.167h.883v-6.167zm8.08 3.037c0 1.379-.821 2.433-2.1 2.433-1.278 0-2.098-1.054-2.098-2.433 0-1.348.82-2.355 2.099-2.355 1.278 0 2.098 1.007 2.098 2.355zm.898 0c0-1.782-1.183-3.145-2.998-3.145-1.814 0-2.997 1.363-3.013 3.145 0 1.813 1.199 3.223 3.014 3.223 1.814 0 2.997-1.41 2.997-3.223zm2.777-3.037h.868l2.793 4.013c.237.326.52.883.52.883h.016s-.063-.542-.063-.883V59.62h.884v6.167h-.868l-2.793-3.998c-.236-.34-.52-.898-.52-.898h-.032s.063.557.063.898v3.998h-.883v-6.167h.015zm10.035 1.705c.111-.31.253-.868.253-.868h.031s.127.558.237.867l.694 1.953h-1.909l.695-1.953zm-.93 2.68h2.366l.647 1.766h.915l-2.256-6.166h-.93L78.26 65.77h.9l.615-1.766zm6.406-4.385h.883v5.408h2.809v.743h-3.692v-6.15zm-63.335-5.097h-2.682c-1.278 0-1.846-.558-1.846-1.813v-9.096c0-.34-.158-.51-.521-.51h-1.23v-2.418h2.697c1.279 0 1.846.558 1.846 1.813v9.095c0 .34.158.511.521.511h1.215v2.418zm-4.875-17.648c0 .945.788 1.72 1.751 1.72.963 0 1.736-.775 1.751-1.72 0-.946-.788-1.72-1.751-1.72-.962 0-1.751.774-1.751 1.72zm50.727 17.648h-2.698c-1.278 0-1.846-.558-1.846-1.813v-9.096c0-.34-.158-.51-.52-.51h-1.216v-2.418h2.698c1.278 0 1.846.558 1.846 1.813v9.095c0 .34.158.511.521.511H68.7v2.418zm-4.891-17.648c0 .945.789 1.72 1.751 1.72.963 0 1.752-.775 1.752-1.72 0-.946-.79-1.72-1.752-1.72s-1.751.774-1.751 1.72z" fill="#fff"/></svg>
